vsi/record_dark.svg

<svg viewBox="0 0 16 16" fill="none" xmlns="http://www.w3.org/2000/svg" height="1em" width="1em">
  <path d="M8 10C9.10457 10 10 9.10457 10 8C10 6.89543 9.10457 6 8 6C6.89543 6 6 6.89543 6 8C6 9.10457 6.89543 10 8 10Z" fill="#F48771"/>
  <path fill-rule="evenodd" clip-rule="evenodd" d="M8.6 0.999985C10.2 1.09999 11.7 1.89999 12.8 2.99999C14.1 4.39999 14.8 6.09999 14.8 8.09999C14.8 9.69999 14.2 11.2 13.2 12.5C12.2 13.7 10.8 14.6 9.2 14.9C7.6 15.2 6 15 4.6 14.2C3.2 13.4 2.1 12.2 1.5 10.7C0.899997 9.19999 0.799997 7.49999 1.3 5.99999C1.8 4.39999 2.7 3.09999 4.1 2.19999C5.4 1.29999 7 0.899985 8.6 0.999985ZM9.1 13.9C10.4 13.6 11.6 12.9 12.5 11.8C13.3 10.7 13.8 9.39999 13.7 7.99999C13.7 6.39999 13.1 4.79999 12 3.69999C11 2.69999 9.8 2.09999 8.4 1.99999C7.1 1.89999 5.7 2.19999 4.6 2.99999C3.5 3.79999 2.7 4.89999 2.3 6.29999C1.9 7.59999 1.9 8.99999 2.5 10.3C3.1 11.6 4 12.6 5.2 13.3C6.4 14 7.8 14.2 9.1 13.9Z" fill="#F48771"/>
</svg>

<svg viewBox="0 0 16 16" fill="none" xmlns="http://www.w3.org/2000/svg" height="1em" width="1em">
  <path d="M8 10a2 2 0 1 0 0-4 2 2 0 0 0 0 4Z" fill="#F48771"/>
  <path fill-rule="evenodd" clip-rule="evenodd" d="M8.6 1c1.6.1 3.1.9 4.2 2 1.3 1.4 2 3.1 2 5.1 0 1.6-.6 3.1-1.6 4.4-1 1.2-2.4 2.1-4 2.4-1.6.3-3.2.1-4.6-.7-1.4-.8-2.5-2-3.1-3.5C.9 9.2.8 7.5 1.3 6c.5-1.6 1.4-2.9 2.8-3.8C5.4 1.3 7 .9 8.6 1Zm.5 12.9c1.3-.3 2.5-1 3.4-2.1.8-1.1 1.3-2.4 1.2-3.8 0-1.6-.6-3.2-1.7-4.3-1-1-2.2-1.6-3.6-1.7-1.3-.1-2.7.2-3.8 1-1.1.8-1.9 1.9-2.3 3.3-.4 1.3-.4 2.7.2 4 .6 1.3 1.5 2.3 2.7 3 1.2.7 2.6.9 3.9.6Z" fill="#F48771"/>
</svg>
